!!!COM:	la Rue, Pierre de
!!!CDT:	~1452///-1518/11/20
!!!OPR:	Missa De feria
!!!ONM:	2
!!!OTL:	Gloria
!!!AGN:	Mass; Gloria
!!!SCT:	Rue1009b
!!!SCA:	Rue1009b
!!!voices:	5
!!!voices-OPR:	5
**kern	**kern	**kern	**kern	**kern
*staff5	*staff4	*staff3	*staff2	*staff1
*Ivox	*Ivox	*Ivox	*Ivox	*Ivox
*I"Bassus	*I"Tenor2	*I"Tenor1	*I"Contra	*I"Discantus
*I'B	*I'T2	*I'T1	*I'C	*I'D
*>[A,B]	*>[A,B]	*>[A,B]	*>[A,B]	*>[A,B]
*>A	*>A	*>A	*>A	*>A
*clefF4	*clefGv2	*clefGv2	*clefGv2	*clefG2
*k[]	*k[]	*k[]	*k[]	*k[]
*M2/1	*M2/1	*M2/1	*M2/1	*M2/1
*met(C)	*met(C)	*met(C)	*met(C)	*met(C)
!!section: Et in terra pax
!!!OMD: Et in terra pax
=1-	=1-	=1-	=1-	=1-
!	!LO:TX:X=-40:Z=8:t=Canon at the upper fifth (one breve)	!	!	!
0r	0r	0r	0E	0r
=2	=2	=2	=2	=2
0r	0r	0r	1G	0r
.	.	.	[1A	.
=3	=3	=3	=3	=3
0r	0r	0r	2A/]	0e
.	.	.	2A/	.
.	.	.	1A	.
=4	=4	=4	=4	=4
0r	0r	0r	2r	1g
.	.	.	2B\	.
.	.	.	2A/	[1a
.	.	.	[2c\	.
=5	=5	=5	=5	=5
0AA	0r	0r	4c\]	2a/]
.	.	.	4B\	.
.	.	.	1A	2a/
.	.	.	.	1a
.	.	.	4G/	.
.	.	.	4F/	.
=6	=6	=6	=6	=6
1C	0r	0r	1E	2r
.	.	.	.	2g/
[1D	.	.	1r	2f/
.	.	.	.	[2a/
=7	=7	=7	=7	=7
2D\]	0r	0r	1A	4a/]
.	.	.	.	4g/
2D\	.	.	.	1f
1D	.	.	[1A	.
.	.	.	.	4e/
.	.	.	.	4d/
=8	=8	=8	=8	=8
2r	0r	0r	2A/]	1c
2E\	.	.	2G/	.
2D\	.	.	2F/	1r
[2F\	.	.	[2A/	.
=9	=9	=9	=9	=9
4F\]	1r	0r	4A/]	0r
4E\	.	.	4G/	.
1D	.	.	1F	.
.	1A	.	.	.
4C/	.	.	4E/	.
4BB/	.	.	4D/	.
=10	=10	=10	=10	=10
1AA	1.A	1r	1E	2r
.	.	.	.	2cc\
1r	.	1e	1r	2cc\
.	2G/	.	.	2b\
=11	=11	=11	=11	=11
0r	1A	1.e	0r	2a/
.	.	.	.	2.cc\
.	1G	.	.	.
.	.	.	.	4b\
.	.	2d\	.	4b\
.	.	.	.	4a/
=12	=12	=12	=12	=12
1C	1E	1e	2r	1g
.	.	.	2c\	.
2D\	1r	1d	2B\	1r
2D\	.	.	2A/	.
=13	=13	=13	=13	=13
2E\	0r	1B	1G	2r
4D\	.	.	.	2b\
4C/	.	.	.	.
2BB/	.	1r	2r	2dd\
2BB/	.	.	2G/	2dd\
=14	=14	=14	=14	=14
1AA	0r	0r	2A/	2cc\
.	.	.	4G/	4b\
.	.	.	4F/	4a/
1r	.	.	2E/	2g/
.	.	.	2A/	2cc\
=15	=15	=15	=15	=15
2r	1r	0r	2G/	2b\
2D\	.	.	2F/	2.a/
2.C/	2r	.	[1E	.
.	.	.	.	4g/
.	[2A/	.	.	[2e/
4BB/	.	.	.	.
=16	=16	=16	=16	=16
1AA	2A/]	1r	1E]	2e/]
.	1A	.	.	2cc\
1r	.	2r	1r	2cc\
.	2G/	[2e\	.	2b\
=17	=17	=17	=17	=17
0r	4A/	2e\]	0r	4cc\
.	4G/	.	.	4b\
.	4F/	1e	.	4a/
.	4E/	.	.	4g/
.	1F	.	.	1a
.	.	2d\	.	.
=18	=18	=18	=18	=18
0r	1E	4e\	0r	1g
.	.	4d\	.	.
.	.	4c\	.	.
.	.	4B\	.	.
.	2A/	1c	.	2r
.	[2A/	.	.	2cc\
=19	=19	=19	=19	=19
0r	2A/]	1B	0r	2dd\
.	2G/	.	.	2b\
.	2.A/	2e\	.	2.cc\
.	.	[2e\	.	.
.	4G/	.	.	4b\
=20	=20	=20	=20	=20
1r	1F	2e\]	1r	4a/
.	.	.	.	4g/
.	.	2d\	.	2a/
1C	1E	2.e\	2r	2g/
.	.	.	2E/	[2g/
.	.	4d\	.	.
=21	=21	=21	=21	=21
1.E	0r	1c	2E/	2g/]
.	.	.	2.G/	1g
.	.	1B	.	.
.	.	.	4A/	.
2E\	.	.	2B\	2g/
=22	=22	=22	=22	=22
2F\	0r	0r	2A/	2a/
2E\	.	.	2B\	2g/
1C	.	.	2c\	1e
.	.	.	4B\	.
.	.	.	4A/	.
=23	=23	=23	=23	=23
2r	0r	0r	1G	2r
2C/	.	.	.	2e/
2C/	.	.	2r	2e/
[2C/	.	.	2E/	[2g/
=24	=24	=24	=24	=24
2C/]	0r	0r	2E/	2g/]
1E	.	.	1G	1g
4D\	.	.	2A/	4f/
4C/	.	.	.	4e/
=25	=25	=25	=25	=25
2.E\	0r	0r	4G/	4g/
.	.	.	4A/	4e/
.	.	.	2.B\	4g/
4F\	.	.	.	4a/
4G\	.	.	.	4b\
4A\	.	.	4A/	4cc\
[2G\	.	.	[2d\	[2b\
=26	=26	=26	=26	=26
2G\]	0r	0r	4d\]	2b\]
.	.	.	4c\	.
2A\	.	.	4B\	2.a/
.	.	.	4A/	.
1E	.	.	1B	.
.	.	.	.	4g#i/
.	.	.	.	2g#i/
=27	=27	=27	=27	=27
[0AA	2r	0r	2A/	1a
.	1A	.	2F/	.
.	.	.	[1E	2r
.	2A/	.	.	2cc\
=28	=28	=28	=28	=28
0AA]	2A/	2r	1E]	2cc\
.	1A	1e	.	1cc
.	.	.	1E	.
.	[2A/	2e\	.	2cc\
=29	=29	=29	=29	=29
0r	2A/]	2e\	0r	2cc\
.	2G/	1e	.	2b\
.	1A	.	.	2a/
.	.	[2e\	.	[2cc\
=30	=30	=30	=30	=30
1r	1F	2e\]	0r	2cc\]
.	.	2d\	.	4b\
.	.	.	.	4a/
1C	1E	1e	.	[1g
=31	=31	=31	=31	=31
2C/	0r	1c	1E	1g]
2.C/	.	.	.	.
.	.	1B	1G	1r
4D\	.	.	.	.
2E\	.	.	.	.
=32	=32	=32	=32	=32
2E\	0r	0r	1G	0r
4D\	.	.	.	.
4C/	.	.	.	.
1BB	.	.	1G	.
=33	=33	=33	=33	=33
2r	0r	0r	1A	0r
2AA/	.	.	.	.
2.C/	.	.	2r	.
.	.	.	2A/	.
4D\	.	.	.	.
=34	=34	=34	=34	=34
4E\	0r	0r	2.G/	0r
4F\	.	.	.	.
2.G\	.	.	.	.
.	.	.	4A/	.
.	.	.	4B\	.
4F\	.	.	4c\	.
2D\	.	.	[2d\	.
=35	=35	=35	=35	=35
1F	0r	0r	4d\]	2r
.	.	.	4c\	.
.	.	.	4B\	2a/
.	.	.	4A/	.
1E	.	.	1B	2a/
.	.	.	.	2g/
=36	=36	=36	=36	=36
1AA	0r	0r	1A	2a/
.	.	.	.	4g/
.	.	.	.	4f/
2r	.	.	2r	1e
2A\	.	.	2c\	.
=37	=37	=37	=37	=37
2A\	0r	0r	2c\	2r
2G\	.	.	2B\	2e/
2A\	.	.	2c\	2e/
4G\	.	.	4B\	2f/
4F\	.	.	4A/	.
=38	=38	=38	=38	=38
1E	0r	0r	1G	2.g/
.	.	.	.	4f/
1A	.	.	1c	4e/
.	.	.	.	4d/
.	.	.	.	[2f/
=39	=39	=39	=39	=39
2G\	0r	0r	2B\	2f/]
2E\	.	.	2G/	2.e/
1F	.	.	1A	.
.	.	.	.	4d/
.	.	.	.	2d/
=40	=40	=40	=40	=40
1E	1r	0r	0B	1e
2r	1E	.	.	2r
[2E\	.	.	.	[2g/
=41	=41	=41	=41	=41
2E\]	1G	1r	0r	2g/]
2E\	.	.	.	2g/
2E\	1G	1B	.	1g
2E\	.	.	.	.
=42	=42	=42	=42	=42
1.D	1A	1d	0r	2f/
.	.	.	.	1f
.	1A	1d	.	.
4C/	.	.	.	4e/
4BB/	.	.	.	4d/
=43	=43	=43	=43	=43
1AA	2r	1e	2r	1c
.	2A/	.	1E	.
2r	2G/	1e	.	2r
2AA/	2A/	.	2E/	2cc\
=44	=44	=44	=44	=44
2GG/	2B\	2r	2G/	2b\
2AA/	1A	2e\	2C/	2cc\
1BB	.	2d\	2F/	2dd\
.	2G/	2e\	4E/	2g/
.	.	.	4D/	.
=45	=45	=45	=45	=45
1AA	1A	2f\	2C/	2r
.	.	1e	1A	2cc\
1D	1F	.	.	2.a/
.	.	2d\	2A/	.
.	.	.	.	4b\
=46	=46	=46	=46	=46
2C/	0E	1e	1A	4cc\
.	.	.	.	4a/
2.AA/	.	.	.	1cc
.	.	1c	1A	.
4BB/	.	.	.	.
4C/	.	.	.	4b\
4D\	.	.	.	4a/
=47	=47	=47	=47	=47
1E	2r	0B	2r	1g
.	1E	.	2E/	.
2r	.	.	2G/	2r
[2E\	2E/	.	2G/	[2g/
=48	=48	=48	=48	=48
2E\]	1G	2r	2.E/	2g/]
2E\	.	1B	.	2g/
.	.	.	4F/	.
2E\	1G	.	2G/	2g/
2E\	.	2B\	2E/	2g/
=49	=49	=49	=49	=49
1D	1A	1d	0F	2.f/
.	.	.	.	4d/
2.D\	1A	1d	.	4f/
.	.	.	.	4g/
.	.	.	.	4a/
4C/	.	.	.	4b\
=50	=50	=50	=50	=50
1AA	1A	1e	0E	2cc\
.	.	.	.	1a
1E	1B	1e	.	.
.	.	.	.	2g#i/
=51	=51	=51	=51	=51
1AA	0A	1e	2r	0a
.	.	.	2E/	.
1D	.	1f	4D/	.
.	.	.	4E/	.
.	.	.	4F/	.
.	.	.	4G/	.
=52	=52	=52	=52	=52
2C/	1r	0e	2.A/	2r
2.AA/	.	.	.	2cc\
.	.	.	4B\	.
.	2r	.	2c\	2cc\
4BB/	.	.	.	.
4C/	[2A/	.	2A/	2cc\
4AA/	.	.	.	.
=53	=53	=53	=53	=53
1E	2A/]	1r	1B	4b\
.	.	.	.	4a/
.	2G/	.	.	2b\
1AA	2A/	2r	[1A	2.cc\
.	2E/	[2e\	.	.
.	.	.	.	4b\
=54	=54	=54	=54	=54
0r	1F	2e\]	1A]	2a/
.	.	2d\	.	4g/
.	.	.	.	4f/
.	1E	2e\	2r	2g/
.	.	2B\	2G/	[2e/
=55	=55	=55	=55	=55
1AA	2r	1c	2A/	2e/]
.	1A	.	2.E/	2.e/
1E	.	1B	.	.
.	.	.	4D/	4f/
.	2G/	.	2E/	4g/
.	.	.	.	4a/
=56	=56	=56	=56	=56
2D\	2F/	2r	2F/	2b\
2AA/	2E/	1e	2C/	2cc\
2.D\	1F	.	2r	2a/
.	.	2d\	2D/	[2a/
4C/	.	.	.	.
=57	=57	=57	=57	=57
2AA/	[0El	2c\	2E/	2a/]
2GG/	.	2B\	2G/	2b\
1AA	.	1c	4C/	4a/
.	.	.	4D/	2cc\
.	.	.	4E/	.
.	.	.	4F/	8b/L
.	.	.	.	8a/J
=58	=58	=58	=58	=58
[0EEl	0E_	[0Bl	[0Gl	2.g/
.	.	.	.	4a/
.	.	.	.	1b
=59	=59	=59	=59	=59
0EE]	0E]	0B]	0G]	0el
!!LO:LB:i:g=z
=60||	=60||	=60||	=60||	=60||
*>B	*>B	*>B	*>B	*>B
*clefF4	*clefGv2	*clefGv2	*clefGv2	*clefG2
*k[]	*k[]	*k[]	*k[]	*k[]
*M2/1	*M2/1	*M2/1	*M2/1	*M2/1
*met(C2)	*met(C2)	*met(C2)	*met(C2)	*met(C2)
!!section: Qui tollis
!!!OMD: Qui tollis
!	!LO:TX:X=-40:Z=8:t=Canon at the upper fifth (one breve)	!	!	!
1r	0E	0r	0r	1r
1E	.	.	.	1g
=61.	=61.	=61.	=61.	=61.
1E	0G	0B	1r	1g
1E	.	.	1E	1g
=62	=62	=62	=62	=62
1D	1A	0d	1F	2f/
.	.	.	.	1f
1D	1A	.	1F	.
.	.	.	.	4e/
.	.	.	.	4d/
=63.	=63.	=63.	=63.	=63.
2.AA/	1A	1e	1E	1c
4BB/	.	.	.	.
4C/	2.G/	1e	2E/	2.e/
4D\	.	.	.	.
[2E\	.	.	[2G/	.
.	4A/	.	.	4f/
=64	=64	=64	=64	=64
4E\]	2B\	1e	4G/]	2g/
4D\	.	.	4F/	.
2C/	1A	.	2E/	2a/
2BB/	.	2.d\	2F/	1b
2BB/	2G/	.	2D/	.
.	.	4e\	.	.
=65.	=65.	=65.	=65.	=65.
1AA	0A	2f\	1C	2.cc\
.	.	1e	.	.
.	.	.	.	4b\
1r	.	.	1F	2a/
.	.	2d\	.	4g/
.	.	.	.	4f/
=66	=66	=66	=66	=66
2r	0r	0e	2G/	2e/
2A\	.	.	2A/	2cc\
2A\	.	.	1E	2cc\
2G\	.	.	.	2b\
=67.	=67.	=67.	=67.	=67.
1A	0r	0r	2r	1cc
.	.	.	2e\	.
1F	.	.	2e\	1a
.	.	.	2d\	.
=68	=68	=68	=68	=68
[0E	0r	0r	1e	0g
.	.	.	1c	.
=69.	=69.	=69.	=69.	=69.
0E]	0r	0r	1B	2r
.	.	.	.	1e
.	.	.	2r	.
.	.	.	[2B\	2e/
=70	=70	=70	=70	=70
2r	0r	0r	2B\]	2g/
2E\	.	.	1c	2g/
2F\	.	.	.	1a
2F\	.	.	2d\	.
=71.	=71.	=71.	=71.	=71.
2E\	0r	0r	2e\	2.g/
1G	.	.	4d\	.
.	.	.	4c\	4a/
.	.	.	1B	4b\
.	.	.	.	4cc\
4F\	.	.	.	[2dd\
4E\	.	.	.	.
=72	=72	=72	=72	=72
4D\	0r	0r	1d	4dd\]
4E\	.	.	.	4cc\
4F\	.	.	.	4a/
4G\	.	.	.	4b\
2A\	.	.	2c\	2cc\
2G\	.	.	[2d\	[2b\
=73.	=73.	=73.	=73.	=73.
1A	0r	0r	4d\]	2b\]
.	.	.	4c\	.
.	.	.	4B\	2.a/
.	.	.	4A/	.
1E	.	.	1B	.
.	.	.	.	4g#i/
.	.	.	.	2g#i/
=74	=74	=74	=74	=74
[0AA	1r	0r	2A/	0a
.	.	.	2E/	.
.	1A	.	1F	.
=75.	=75.	=75.	=75.	=75.
0AA_	2A/	1r	[0E	1r
.	1A	.	.	.
.	.	1e	.	1cc
.	2A/	.	.	.
=76	=76	=76	=76	=76
0AA]	2A/	2e\	0E]	2cc\
.	2A/	1e	.	1cc
.	2.A/	.	.	.
.	.	2e\	.	2cc\
.	4G/	.	.	.
=77.	=77.	=77.	=77.	=77.
0r	2A/	2e\	2r	2cc\
.	2G/	2e\	2B\	2b\
.	1A	2.e\	2A/	2cc\
.	.	.	2A/	2cc\
.	.	4d\	.	.
=78	=78	=78	=78	=78
1r	1G	2e\	2B\	2.b\
.	.	2d\	2B\	.
.	.	.	.	4g/
1C	1E	1e	2.c\	2a/
.	.	.	.	[2g/
.	.	.	4B\	.
=79.	=79.	=79.	=79.	=79.
1D	1r	1d	1A	2g/]
.	.	.	.	2f#i/
2E\	1E	1B	1G	1g
[2G\	.	.	.	.
=80	=80	=80	=80	=80
4G\]	0G	1r	0r	2r
4F\	.	.	.	.
4E\	.	.	.	1g
4D\	.	.	.	.
1E	.	1B	.	.
.	.	.	.	2g/
=81.	=81.	=81.	=81.	=81.
0D	0A	0d	0r	1.f
.	.	.	.	4e/
.	.	.	.	4d/
=82	=82	=82	=82	=82
0r	1A	0e	1c	2c/
.	.	.	.	2a/
.	2A/	.	2A/	2cc\
.	2G/	.	2B\	2b\
=83.	=83.	=83.	=83.	=83.
0r	1A	1e	1c	2b\
.	.	.	.	2.a/
.	1B	2e\	1G	.
.	.	.	.	4g#i/
.	.	2d\	.	2g#i/
=84	=84	=84	=84	=84
1AA	0A	1e	1c	1a
1D	.	1f	2A/	1r
.	.	.	[2A/	.
=85.	=85.	=85.	=85.	=85.
2C/	1A	0e	2A/]	2r
2AA/	.	.	4G/	2cc\
.	.	.	4F/	.
1E	2A/	.	1E	2cc\
.	2G/	.	.	2b\
=86	=86	=86	=86	=86
2AA/	1A	1e	1r	2cc\
2A\	.	.	.	2a/
2E\	1G	2e\	2r	2.b\
2G\	.	2d\	2B\	.
.	.	.	.	4g/
=87.	=87.	=87.	=87.	=87.
1C	1E	1e	2.c\	2a/
.	.	.	.	1g
.	.	.	4B\	.
1D	1r	1d	2A/	.
.	.	.	2A/	2f/
=88	=88	=88	=88	=88
2E\	1r	1B	1G	2g/
2E\	.	.	.	2.e/
1F	3A/V	1r	1r	.
.	.	.	.	4d/
.	3A/	.	.	.
.	.	.	.	2d/
.	3A/Z	.	.	.
=89.	=89.	=89.	=89.	=89.
1E	2G/	1r	3B\V	1e
.	.	.	3B\	.
.	2G/	.	.	.
.	.	.	3B\Z	.
1AA	1A	3e\V	2c\	1r
.	.	3e\	.	.
.	.	.	2c\	.
.	.	3e\Z	.	.
=90	=90	=90	=90	=90
0r	1F	2d\	1A	2r
.	.	2d\	.	2a/
.	1E	1e	1B	2g/
.	.	.	.	2g/
=91.	=91.	=91.	=91.	=91.
0r	2r	1c	1A	2a/
.	2A/	.	.	2f/
.	2G/	1B	2r	1e
.	2G/	.	2B\	.
=92	=92	=92	=92	=92
0r	2.A/	2r	2c\	1r
.	.	2e\	2c\	.
.	4G/	.	.	.
.	1F	2d\	1A	2r
.	.	2d\	.	[2a/
=93.	=93.	=93.	=93.	=93.
1r	1E	2.e\	1B	2a/]
.	.	.	.	2g/
.	.	4d\	.	.
1AA	2r	1c	2.A/	2a/
.	[2A/	.	.	2cc\
.	.	.	4G/	.
=94	=94	=94	=94	=94
1BB	2A/]	1B	2F/	2dd\
.	2G/	.	2D/	2b\
1AA	2A/	2r	1E	2cc\
.	2A/	[2e\	.	4b\
.	.	.	.	4a/
=95.	=95.	=95.	=95.	=95.
2E\	2B\	2e\]	0r	1g
2.G\	2B\	2d\	.	.
.	1G	2e\	.	1g
4F\	.	.	.	.
2E\	.	2e\	.	.
=96	=96	=96	=96	=96
0D	1A	2f\	0r	2f/
.	.	2f\	.	2d/
.	1F	1d	.	1f
=97.	=97.	=97.	=97.	=97.
1C	1G	1e	0r	2e/
.	.	.	.	2.g/
1E	1E	1c	.	.
.	.	.	.	4e/
.	.	.	.	2g/
=98	=98	=98	=98	=98
1D	0F	1d	0r	4f/
.	.	.	.	4e/
.	.	.	.	4d/
.	.	.	.	4c/
1D	.	1B	.	2d/
.	.	.	.	4e/
.	.	.	.	4d/
=99.	=99.	=99.	=99.	=99.
0AA	0E	0c	1A	1e
.	.	.	1A	2r
.	.	.	.	2e/
=100	=100	=100	=100	=100
1E	0r	0B	1.G	1g
2E\	.	.	.	1g
2E\	.	.	2G/	.
=101.	=101.	=101.	=101.	=101.
1F	1r	0r	2c\	1a
.	.	.	2d\	.
1G	1E	.	2B\	1b
.	.	.	[2e\	.
=102	=102	=102	=102	=102
1E	0G	1r	2e\]	1g
.	.	.	4d\	.
.	.	.	4c\	.
2r	.	1B	2B\	2r
2E\	.	.	2E/	2g/
=103.	=103.	=103.	=103.	=103.
1D	0A	0d	2F/	2f/
.	.	.	2D/	1a
1D	.	.	1F	.
.	.	.	.	2b\
=104	=104	=104	=104	=104
1AA	1A	0e	2.E/	2cc\
.	.	.	.	2.a/
.	.	.	4F/	.
1E	1B	.	1G	.
.	.	.	.	4g#i/
.	.	.	.	2g#i/
=105.	=105.	=105.	=105.	=105.
1AA	1A	1e	2E/	1a
.	.	.	1E	.
1D	2r	1f	.	2r
.	2A/	.	2D/	2a/
=106	=106	=106	=106	=106
2C/	2A/	1e	0E	2cc\
4AA/	2A/	.	.	2cc\
4BB/	.	.	.	.
4C/	2A/	2r	.	2cc\
4D\	.	.	.	.
2E\	2G/	2e\	.	2b\
=107.	=107.	=107.	=107.	=107.
1AA	1A	2e\	0r	2a/
.	.	2e\	.	1cc
1r	2G/	2e\	.	.
.	2F/	2d\	.	4b\
.	.	.	.	4a/
=108	=108	=108	=108	=108
1C	0E	1e	1r	0g
2C/	.	2d\	1G	.
2C/	.	2c\	.	.
=109.	=109.	=109.	=109.	=109.
1.E	1r	0B	1.G	1r
.	[1E	.	.	[1g
2D\	.	.	2F/	.
=110	=110	=110	=110	=110
2C/	2E/]	1r	2E/	2g/]
4BB/	2F/	.	4D/	2a/
4AA/	.	.	4C/	.
[1GG	[1G	[1B	1D	2b\
.	.	.	.	2cc\
=111.	=111.	=111.	=111.	=111.
2GG/]	2G/]	2B\]	1.D	1.dd
2AA/	4F/	2c\	.	.
.	4E/	.	.	.
2BB/	[1D	[1d	.	.
2C/	.	.	2E/	4cc\
.	.	.	.	4b\
=112	=112	=112	=112	=112
1.D	2D/]	2d\]	1.F	0a
.	2E/	4c\	.	.
.	.	4B\	.	.
.	2F/	[1A	.	.
4C/	2G/	.	4E/	.
4BB/	.	.	4D/	.
=113.	=113.	=113.	=113.	=113.
0AA	0A	2A/]	1C	1cc
.	.	2B\	.	.
.	.	2c\	[1C	2cc\
.	.	2d\	.	[2cc\
=114	=114	=114	=114	=114
0C	1G	0e	2C/]	2cc\]
.	.	.	2D/	4b\
.	.	.	.	4a/
.	1E	.	2E/	2g/
.	.	.	2C/	2a/
=115.	=115.	=115.	=115.	=115.
0GG	0G	1d	[0D	1b
.	.	1B	.	2b\
.	.	.	.	[2g/
=116	=116	=116	=116	=116
1.GG	1.G	0d	0D]	2g/]
.	.	.	.	4f/
.	.	.	.	4e/
.	.	.	.	1d
2AA/	2F/	.	.	.
=117.	=117.	=117.	=117.	=117.
1BB	1D	1.d	0r	2d/
.	.	.	.	2.g/
1C	1E	.	.	.
.	.	.	.	4f/
.	.	2c\	.	[2e/
=118	=118	=118	=118	=118
0D	0F	1A	1r	2e/]
.	.	.	.	4d/
.	.	.	.	4c/
.	.	1B	1D	1d
=119.	=119.	=119.	=119.	=119.
0AA	[0El	0c	0A	0e
=120	=120	=120	=120	=120
1r	0E_	[0Bl	0G	[0el
1EE	.	.	.	.
=121.	=121.	=121.	=121.	=121.
0EEl	0E]	0B]	0Gl	0e]
==	==	==	==	==
*-	*-	*-	*-	*-
!!!RDF**kern: l=long note in original notation
!!!RDF**kern: i=editorial accidental
!!!RDF**kern: V=start of tuplet marker
!!!RDF**kern: Z=end of tuplet marker
!!!ENC:	Chris Gage 01-15-2013
!!!END:	2013/07/17/
!!!EED:	Jesse Rodin
!!!EEV:	2013/07/19/
!!!ONB:	Translated from MusicXML and edited on 2013/07/19/ by Craig Sapp
!!muse2ps: T^@{OPR}^u^@{ONM}{. }@{OTL}^C^@{COM}^i2I150v85,85,85,85,130Q16
